public/images/undraw_basketball_re_fsbx.svg

<svg width="91" height="177" viewBox="0 0 91 177" fill="none" xmlns="http://www.w3.org/2000/svg">
<g clip-path="url(#clip0_165_890)">
<path d="M0.677175 117.72C0.543047 117.72 0.434509 117.611 0.434509 117.477V48.9796C0.434509 31.7426 14.434 17.7195 31.642 17.7195H84.334C84.4681 17.7195 84.5766 17.8283 84.5766 17.9626C84.5766 18.097 84.4681 24.7687 84.334 24.7687L31.642 18.2057C14.7018 18.2057 0.919842 32.0109 0.919842 48.9796V117.477C0.919842 117.611 0.811304 117.72 0.677175 117.72Z" fill="#3F3D56"/>
<path d="M84.5183 0C84.6524 0 84.761 0.10872 84.761 0.243075V68.7403C84.761 85.9773 70.7615 100 53.5535 100H0.861502C0.727373 100 0.618835 99.8916 0.618835 99.7573C0.618835 99.6229 0.727373 99.5142 0.861502 99.5142H53.5535C70.4937 99.5142 84.2756 85.709 84.2756 68.7403V0.243075C84.2756 0.10872 84.3842 0 84.5183 0Z" fill="#3F3D56"/>
<path d="M60.0786 64.9745C60.0786 63.9241 60.4959 62.8962 61.2799 62.1312L72.3335 51.3454C72.6219 50.2461 73.1731 49.218 73.9286 48.3704C74.8417 47.3183 75.9621 46.5551 77.0837 46.2219C78.2248 45.8824 79.2331 46.0265 79.9232 46.6273C81.3311 47.8529 80.932 50.6302 79.0341 52.8174C78.3028 53.6841 77.3636 54.3739 76.3176 54.8128L66.2834 65.1736L71.8074 73.5588C72.8771 74.8081 73.1141 76.5376 72.4171 78.0597C71.7439 79.5302 70.3362 80.4463 68.7433 80.4503C67.0394 80.4546 65.5308 79.4329 64.8995 77.8477L60.3628 66.4514C60.1715 65.971 60.0786 65.4701 60.0786 64.9745H60.0786Z" fill="#FFB6B6"/>
<path d="M69.3517 55.1531C74.1765 55.1531 78.0877 51.2352 78.0877 46.4024C78.0877 41.5695 74.1765 37.6517 69.3517 37.6517C64.527 37.6517 60.6157 41.5695 60.6157 46.4024C60.6157 51.2352 64.527 55.1531 69.3517 55.1531Z" fill="#3F3D56"/>
<path d="M73.9018 69.8213L67.3993 74.7863L75.6487 80.4619L79.7883 71.5737L73.9018 69.8213Z" fill="#FFB6B6"/>
<path d="M77.4485 74.0931C81.2503 74.0931 84.3323 71.0059 84.3323 67.1978C84.3323 63.3896 81.2503 60.3024 77.4485 60.3024C73.6468 60.3024 70.5648 63.3896 70.5648 67.1978C70.5648 71.0059 73.6468 74.0931 77.4485 74.0931Z" fill="#FFB6B6"/>
<path d="M77.9839 74.9246C77.9839 74.9246 79.535 69.9506 78.5326 69.0105C77.5302 68.0704 77.5621 69.0425 77.5621 69.0425L78.8335 64.2494C78.8335 64.2494 78.2277 61.4644 74.2148 61.0814C74.2148 61.0814 75.6403 58.3727 77.7123 58.8196C79.7842 59.2665 79.9153 59.7774 80.7954 59.6053C81.6755 59.4332 83.4996 61.0332 83.4996 61.0332C83.4996 61.0332 84.4339 60.2695 84.328 61.2119C84.2222 62.1542 85.215 63.6946 85.215 63.6946C85.215 63.6946 85.7803 63.3415 85.6247 64.3301C85.469 65.3188 86.2004 65.8385 86.2004 65.8385C86.2004 65.8385 85.2322 66.4647 85.5428 66.9587C85.8534 67.4527 87.0948 67.8412 86.6256 68.3432C86.1563 68.8452 86.5087 70.0071 84.9203 71.2329C83.3319 72.4587 77.9839 74.9246 77.9839 74.9246V74.9246Z" fill="#2F2E41"/>
<path d="M82.062 164.803L82.0042 164.743L65.7546 147.831C64.1817 146.195 63.4203 143.96 63.6653 141.702L64.513 133.888L72.7426 135.387L73.0573 140.313L86.8798 162.771L82.062 164.803Z" fill="#FFB6B6"/>
<path d="M84.0366 177C83.7745 177 83.5155 176.933 83.2792 176.802C82.7071 176.483 82.3912 175.834 82.4931 175.186L83.0581 171.603L80.1414 165.273L80.9106 162.961L85.3146 162.717L86.7824 161.246L88.4264 161.533C89.4098 161.704 90.2286 162.316 90.6727 163.211C91.1166 164.107 91.1087 165.13 90.6509 166.018L85.4302 176.15C85.2343 176.53 84.9011 176.808 84.492 176.932C84.3418 176.977 84.1887 177 84.0366 177Z" fill="#2F2E41"/>
<path d="M75.7823 117.502L72.6277 137.434L57.3397 144.726L54.913 125.28L75.7823 117.502Z" fill="#2F2E41"/>
<path d="M67.0167 158.969L66.9589 158.909L50.7093 141.997C49.1364 140.361 48.375 138.127 48.6201 135.868L49.4677 128.054L57.6973 129.553L58.012 134.479L71.8345 156.937L67.0167 158.969Z" fill="#FFB6B6"/>
<path d="M68.9913 171.166C68.7292 171.166 68.4702 171.099 68.2339 170.968C67.6618 170.649 67.3459 170 67.4478 169.353L68.0128 165.77L65.0961 159.439L65.8653 157.128L70.2693 156.883L71.7372 155.412L73.3811 155.699C74.3645 155.87 75.1833 156.482 75.6274 157.377C76.0713 158.273 76.0634 159.296 75.6056 160.184L70.385 170.316C70.189 170.697 69.8558 170.974 69.4468 171.098C69.2965 171.144 69.1434 171.166 68.9913 171.166Z" fill="#2F2E41"/>
<path d="M58.3924 110.825L56.6847 115.478L49.0161 128.023C48.7907 128.392 48.7545 128.832 48.9166 129.233C49.0787 129.633 49.4112 129.924 49.8287 130.031L66.7533 134.379L74.5882 123.358C76.8232 120.214 77.9794 116.365 77.8491 112.509L58.3924 110.825Z" fill="#2F2E41"/>
<path d="M75.8601 115.557H56.439L56.4499 115.426L58.9019 85.655C59.2232 81.7532 61.2375 78.2189 64.4282 75.9583L64.4619 75.9345L77.737 76.427L74.8548 103.26L78.6875 110.988C79.1768 111.976 79.123 113.124 78.5432 114.061C77.9635 114.998 76.9604 115.557 75.8601 115.557V115.557Z" fill="#5FD068"/>
<path d="M70.5489 81.9236C69.4405 81.9238 68.3597 81.4733 67.5608 80.6282L59.1405 71.7182C58.0331 70.5465 57.7421 68.8377 58.399 67.3645L64.6903 53.25C64.5524 52.122 64.6853 50.9626 65.0751 49.8951C65.5351 48.5798 66.2946 47.4558 67.2136 46.7309C68.149 45.9929 69.1389 45.7531 70.0017 46.0565C71.7622 46.6742 72.4163 49.4021 71.4596 52.1374C71.0999 53.213 70.4816 54.2019 69.6716 54.9973L64.1706 68.3392L72.3973 74.0858C73.8519 74.8504 74.7105 76.3694 74.6244 78.0422C74.5415 79.658 73.5713 81.0303 72.0926 81.6235C71.5895 81.8255 71.0662 81.9236 70.5489 81.9236Z" fill="#FFB6B6"/>
<path d="M9.72137 55.587C11.8478 58.1373 12.6731 61.5111 13.2404 64.7849C13.4478 65.9817 13.6292 67.1829 13.7846 68.3875C14.3646 72.8841 14.5597 77.5774 12.992 81.8308C12.595 82.908 12.1926 84.359 13.1401 85.0053C13.8928 85.5187 14.9939 84.9857 15.4037 84.1711C15.8135 83.3566 15.732 82.3916 15.6407 81.4841C14.6432 82.5572 14.9545 84.5443 16.2321 85.2599C17.5097 85.9755 19.3627 85.2006 19.7532 83.7874C19.9565 85.2952 21.4337 86.5164 22.9502 86.4305C24.4667 86.3445 25.7969 84.9643 25.8293 83.4432C25.043 84.2799 25.4319 85.7955 26.4079 86.3994C27.3839 87.0033 28.6849 86.8336 29.686 86.2724C30.6871 85.7112 31.4535 84.8183 32.1978 83.9439C31.2165 84.5511 30.9867 86.0882 31.7474 86.9567C32.5082 87.8253 34.0595 87.7972 34.7883 86.9015C35.3889 86.1635 35.3857 85.0861 35.0926 84.1803C34.7995 83.2745 34.26 82.472 33.8537 81.6111C31.9931 77.6688 33.089 72.9933 34.6262 68.9135C36.1633 64.8337 38.1463 60.7308 37.9802 56.3733" fill="white"/>
<path d="M9.59269 55.7159C11.152 57.6038 12.0014 59.9413 12.5573 62.2995C13.1597 64.8547 13.5355 67.4854 13.8008 70.0956C14.0693 72.737 14.1583 75.426 13.7583 78.0592C13.5654 79.3293 13.2538 80.5746 12.8165 81.7823C12.515 82.6151 12.1514 83.6625 12.5239 84.5307C12.963 85.5542 14.1927 85.5698 14.981 84.9547C16.0319 84.1347 15.9413 82.6739 15.8227 81.4841C15.8083 81.3401 15.6269 81.227 15.512 81.3552C14.6918 82.2705 14.6687 83.7248 15.3748 84.7171C16.1233 85.7689 17.5121 85.959 18.6218 85.3837C19.2445 85.061 19.7284 84.5118 19.9287 83.8359H19.5777C19.8208 85.4427 21.3978 86.7531 23.0343 86.6067C24.6363 86.4634 25.952 85.0447 26.0113 83.4432C26.017 83.2895 25.8054 83.1969 25.7006 83.3142C25.1713 83.9072 25.1141 84.7393 25.4093 85.4589C25.7356 86.2542 26.4403 86.7731 27.281 86.9153C29.4437 87.2811 31.0587 85.5615 32.3265 84.0728C32.4528 83.9246 32.2904 83.6666 32.106 83.7865C31.2956 84.3132 30.9384 85.3625 31.1929 86.2893C31.4604 87.2636 32.4097 87.8365 33.3945 87.768C34.502 87.6909 35.2885 86.877 35.437 85.7895C35.6169 84.4716 34.9436 83.2975 34.3471 82.1797C31.5109 76.8643 34.0128 70.9981 36.0077 65.8683C37.1877 62.8338 38.2745 59.6749 38.1622 56.3733C38.1543 56.1393 37.7902 56.1383 37.7982 56.3733C37.9846 61.8569 34.9154 66.6578 33.4835 71.7842C32.8041 74.2165 32.4247 76.812 32.9157 79.3172C33.1599 80.5633 33.2053 81.8734 33.8011 82.9851C34.3633 84.0342 35.4207 85.1101 34.9309 86.3071C34.4759 87.419 32.9529 87.777 32.0383 86.9896C31.1661 86.2386 31.3527 84.7103 32.2897 84.1013L32.0692 83.815C30.9632 85.1136 30.0764 84.9442 28.2198 84.9297C27.421 84.9235 26.2343 86.2468 25.8423 85.5269C25.5095 84.9158 25.4747 84.1134 25.958 83.5721L25.6473 83.4432C25.5946 84.8663 24.3846 86.1624 22.9502 86.2482C21.4873 86.3356 20.1447 85.1669 19.9287 83.739C19.9002 83.5511 19.6246 83.5805 19.5777 83.739C19.1911 85.0435 17.4867 85.7817 16.2919 85.0837C15.1267 84.4031 14.8781 82.6077 15.7694 81.613L15.4587 81.4841C15.568 82.5807 15.7068 84.0256 14.6653 84.7373C14.2702 85.0073 13.7366 85.1416 13.2992 84.8905C12.8729 84.6457 13.4117 83.9347 13.4171 83.4713C13.4294 82.4278 13.2777 81.6601 13.562 80.6752C13.9018 79.4985 14.1203 78.2893 14.2485 77.0717C14.5102 74.5869 14.386 72.0763 14.112 69.5982C13.8401 67.1382 13.484 64.6634 12.92 62.252C12.349 59.811 11.4623 57.41 9.85008 55.4581C9.70062 55.2772 9.44437 55.5363 9.59269 55.7159H9.59269Z" fill="#3F3D56"/>
<path d="M23.8518 58.6973C16.4405 58.6973 8.56378 57.462 8.56378 55.1727C8.56378 52.8834 16.4405 51.6481 23.8518 51.6481C31.263 51.6481 39.1397 52.8834 39.1397 55.1727C39.1397 57.462 31.263 58.6973 23.8518 58.6973ZM23.8518 52.1343C15.1283 52.1343 9.04911 53.7356 9.04911 55.1727C9.04911 56.6098 15.1283 58.2111 23.8518 58.2111C32.5752 58.2111 38.6544 56.6098 38.6544 55.1727C38.6544 53.7356 32.5752 52.1343 23.8518 52.1343Z" fill="#3F3D56"/>
<path d="M6.88409 62.1119C6.80802 62.1119 6.73172 62.1077 6.65564 62.0989L1.94143 61.5544C0.945406 61.4392 0.176174 60.5953 0.152002 59.591L0.00057343 53.3043C-0.0131712 52.7267 0.220727 52.1696 0.642074 51.7753C1.06366 51.381 1.63525 51.1859 2.20898 51.2391L9.28161 51.8981C10.0795 51.9726 10.7589 52.5126 11.0125 53.2741L12.1488 56.6891C12.4114 57.4786 12.1569 58.3642 11.5156 58.8929L8.17231 61.6502C7.80997 61.9491 7.35047 62.1119 6.88409 62.1119Z" fill="#3F3D56"/>
</g>
<defs>
<clipPath id="clip0_165_890">
<rect width="91" height="177" fill="white"/>
</clipPath>
</defs>
</svg>

<?xml version="1.0" encoding="UTF-8"?><svg id="Calque_1" xmlns="http://www.w3.org/2000/svg" viewBox="0 0 91 177"><defs><style>.cls-1{fill:#ffb6b6;}.cls-2{fill:#2f2e41;}.cls-3{fill:#3f3d56;}.cls-4{fill:#5fd068;}</style></defs><path class="cls-3" d="m84.52,0c-.14,0-.24.11-.24.24v17.48H31.64C14.43,17.72.43,31.74.43,48.98v3.03c-.29.37-.44.82-.43,1.29l.15,6.29c0,.35.11.68.28.96v56.93c0,.13.11.24.25.24.13,0,.24-.11.24-.24v-17.48h52.63c17.21,0,31.21-14.02,31.21-31.26V.24c0-.13-.11-.24-.24-.24Zm-.24,68.74c0,16.97-13.79,30.77-30.73,30.77H.92v-38.39c.28.23.64.39,1.02.43l4.72.55c.07.01.15.01.22.01.47,0,.93-.16,1.29-.46l3.35-2.76c.42-.35.67-.84.72-1.37,2.98.77,7.37,1.18,11.61,1.18,7.41,0,15.29-1.24,15.29-3.53s-7.88-3.52-15.29-3.52c-4.89,0-9.98.53-12.87,1.55-.26-.72-.93-1.23-1.7-1.3l-7.07-.66c-.45-.04-.91.07-1.29.32v-2.58c0-16.97,13.78-30.77,30.72-30.77l52.64.09v50.44ZM12.23,56.99c-.02-.1-.05-.2-.08-.3l-1-3.01c2.5-.87,7.04-1.55,12.7-1.55,8.73,0,14.8,1.61,14.8,3.04s-6.07,3.04-14.8,3.04c-4.92,0-9-.51-11.62-1.21h0Z"/><path class="cls-1" d="m60.08,64.97c0-1.05.42-2.08,1.2-2.84l11.05-10.79c.29-1.1.84-2.13,1.6-2.98.91-1.05,2.03-1.82,3.16-2.15,1.14-.34,2.15-.2,2.84.41,1.41,1.23,1.01,4-.89,6.19-.73.87-1.67,1.56-2.72,2l-10.03,10.36,5.52,8.39c1.07,1.25,1.31,2.98.61,4.5-.67,1.47-2.08,2.39-3.67,2.39-1.7,0-3.21-1.02-3.84-2.6l-4.54-11.4c-.19-.48-.28-.98-.28-1.48h0Z"/><path class="cls-3" d="m69.35,55.15c4.82,0,8.74-3.92,8.74-8.75s-3.91-8.75-8.74-8.75-8.74,3.92-8.74,8.75,3.91,8.75,8.74,8.75Z"/><path class="cls-1" d="m73.9,69.82l-6.5,4.97,8.25,5.68,4.14-8.89-5.89-1.75Z"/><path class="cls-1" d="m77.45,74.09c3.8,0,6.88-3.09,6.88-6.9s-3.08-6.9-6.88-6.9-6.88,3.09-6.88,6.9,3.08,6.9,6.88,6.9Z"/><path class="cls-2" d="m77.98,74.92s1.55-4.97.55-5.91-.97.03-.97.03l1.27-4.79s-.61-2.78-4.62-3.17c0,0,1.43-2.71,3.5-2.26,2.07.45,2.2.96,3.08.79.88-.17,2.7,1.43,2.7,1.43,0,0,.93-.76.83.18-.11.94.89,2.48.89,2.48,0,0,.57-.35.41.64-.16.99.58,1.51.58,1.51,0,0-.97.63-.66,1.12.31.49,1.55.88,1.08,1.38-.47.5-.12,1.66-1.71,2.89-1.59,1.23-6.94,3.69-6.94,3.69h0Z"/><path class="cls-1" d="m82.06,164.8l-.06-.06-16.25-16.91c-1.57-1.64-2.33-3.87-2.09-6.13l.85-7.81,8.23,1.5.31,4.93,13.82,22.46-4.82,2.03Z"/><path class="cls-2" d="m84.04,177c-.26,0-.52-.07-.76-.2-.57-.32-.89-.97-.79-1.62l.56-3.58-2.92-6.33.77-2.31,4.4-.24,1.47-1.47,1.64.29c.98.17,1.8.78,2.25,1.68.44.9.44,1.92-.02,2.81l-5.22,10.13c-.2.38-.53.66-.94.78-.15.04-.3.07-.46.07Z"/><path class="cls-2" d="m75.78,117.5l-3.15,19.93-15.29,7.29-2.43-19.45,20.87-7.78Z"/><path class="cls-1" d="m67.02,158.97l-.06-.06-16.25-16.91c-1.57-1.64-2.33-3.87-2.09-6.13l.85-7.81,8.23,1.5.31,4.93,13.82,22.46-4.82,2.03Z"/><path class="cls-2" d="m68.99,171.17c-.26,0-.52-.07-.76-.2-.57-.32-.89-.97-.79-1.62l.57-3.58-2.92-6.33.77-2.31,4.4-.25,1.47-1.47,1.64.29c.98.17,1.8.78,2.25,1.68.44.9.44,1.92-.02,2.81l-5.22,10.13c-.2.38-.53.66-.94.78-.15.05-.3.07-.46.07Z"/><path class="cls-2" d="m58.39,110.82l-1.71,4.65-7.67,12.54c-.23.37-.26.81-.1,1.21.16.4.49.69.91.8l16.92,4.35,7.83-11.02c2.23-3.14,3.39-6.99,3.26-10.85l-19.46-1.68Z"/><path class="cls-4" d="m75.86,115.56h-19.42v-.13s2.46-29.77,2.46-29.77c.32-3.9,2.34-7.44,5.53-9.7l.03-.02,13.28.49-2.88,26.83,3.83,7.73c.49.99.44,2.14-.14,3.07-.58.94-1.58,1.5-2.68,1.5h0Z"/><path class="cls-1" d="m70.55,81.92c-1.11,0-2.19-.45-2.99-1.3l-8.42-8.91c-1.11-1.17-1.4-2.88-.74-4.35l6.29-14.11c-.14-1.13,0-2.29.38-3.35.46-1.32,1.22-2.44,2.14-3.16.94-.74,1.93-.98,2.79-.67,1.76.62,2.41,3.35,1.46,6.08-.36,1.08-.98,2.06-1.79,2.86l-5.5,13.34,8.23,5.75c1.45.76,2.31,2.28,2.23,3.96-.08,1.62-1.05,2.99-2.53,3.58-.5.2-1.03.3-1.54.3Z"/><path class="cls-3" d="m9.59,55.72c1.56,1.89,2.41,4.23,2.96,6.58.6,2.56.98,5.19,1.24,7.8.27,2.64.36,5.33-.04,7.96-.19,1.27-.5,2.52-.94,3.72-.3.83-.67,1.88-.29,2.75.44,1.02,1.67,1.04,2.46.42,1.05-.82.96-2.28.84-3.47-.01-.14-.2-.26-.31-.13-.82.92-.84,2.37-.14,3.36.75,1.05,2.14,1.24,3.25.67.62-.32,1.11-.87,1.31-1.55h-.35c.24,1.61,1.82,2.92,3.46,2.77,1.6-.14,2.92-1.56,2.98-3.16,0-.15-.21-.25-.31-.13-.53.59-.59,1.43-.29,2.14.33.8,1.03,1.31,1.87,1.46,2.16.37,3.78-1.35,5.05-2.84.13-.15-.04-.41-.22-.29-.81.53-1.17,1.58-.91,2.5.27.97,1.22,1.55,2.2,1.48,1.11-.08,1.89-.89,2.04-1.98.18-1.32-.49-2.49-1.09-3.61-2.84-5.32-.33-11.18,1.66-16.31,1.18-3.03,2.27-6.19,2.15-9.5,0-.23-.37-.23-.36,0,.19,5.48-2.88,10.28-4.31,15.41-.68,2.43-1.06,5.03-.57,7.53.24,1.25.65,2.29,1.25,3.4.56,1.05,1.26,2.39.77,3.59-.46,1.11-1.98,1.47-2.89.68-.87-.75-.69-2.28.25-2.89l-.22-.29c-1.11,1.3-2.32,2.71-4.17,2.7-.8,0-1.66-.27-2.06-.99-.33-.61-.37-1.41.12-1.95l-.31-.13c-.05,1.42-1.26,2.72-2.7,2.81-1.46.09-2.81-1.08-3.02-2.51-.03-.19-.3-.16-.35,0-.39,1.3-2.09,2.04-3.29,1.34-1.17-.68-1.41-2.48-.52-3.47l-.31-.13c.11,1.1.25,2.54-.79,3.25-.4.27-.93.4-1.37.15-.43-.24-.52-.81-.51-1.27.01-1.04.49-1.96.77-2.94.34-1.18.56-2.39.69-3.6.26-2.48.14-5-.14-7.47-.27-2.46-.63-4.93-1.19-7.35-.57-2.44-1.46-4.84-3.07-6.79-.15-.18-.41.08-.26.26h0Z"/></svg>
